Gurmukhi/0A59.svg

<svg enable-background="new 0 0 336 592" viewBox="0 0 336 592" xmlns="http://www.w3.org/2000/svg"><path d="m242.281342 269.000061c.004608 38.82428.011718 77.14859.01065 115.47287-.000229 8.090668-1.498352 9.018371-8.746231 5.367248-4.610519-2.32257-9.12204-4.849517-13.78865-7.050048-2.982972-1.406586-4.012253-3.481995-3.979477-6.713837.128311-12.653656.052459-25.309387.052459-37.91394-.510864-.111634-.92897-.321259-1.044845-.211548-18.502991 17.513031-48.219162 17.536529-71.131745 3.631103-17.29882-10.498535-29.995689-25.12207-39.073974-43.099609-1.617829-3.203766-1.233185-5.307343 1.251198-7.889496 9.980957-10.373749 17.67678-22.169312 20.31636-36.587128 2.163658-11.818176.266388-23.164917-5.002296-33.989715-1.281792-2.633515-3.329659-2.878037-5.768624-2.869644-9.497619.032669-18.999496-.147507-28.491218.09172-3.979515.100311-6.206017-1.225281-7.293038-5.089477-.898117-3.192673-2.313362-6.239289-3.488426-9.354783-2.203285-5.841674-1.142113-7.497558 5.2938-7.638351 6.828507-.149353 13.662583-.046051 20.494233-.048737 6.998321-.002746 13.997955.079972 20.994415-.034011 3.472229-.05658 5.868782 1.129867 7.855629 4.144607 10.170532 15.432205 18.699966 31.500626 20.617279 50.287888.259994 2.547516 1.656052 3.453918 3.970184 3.455246 18.828614.010711 37.657349-.017685 56.485718.052749 3.987686.014923 4.005249-2.515945 4.000732-5.364242-.023468-14.829788-.006729-29.659638.008728-44.489472.007981-7.652176.022172-7.890182 7.530808-7.820617 14.982071.138794 29.960571-.663788 44.947876-.008988 3.204102.139984 4.798126 1.315918 5.756256 4.222443 1.249695 3.791138 2.897064 7.450027 4.185364 11.229889 1.493133 4.380935.152649 6.286651-4.556275 6.341934-8.663421.101669-17.332244.176498-25.991958-.028381-4.040543-.095612-5.541657 1.204589-5.485291 5.417846.205033 15.326386.074173 30.657273.070359 46.486481m-27.676087 34.818604c1.209549-1.750855 1.199509-3.750702 1.199417-5.757782-.000335-7.152405-.153763-14.310547.088928-21.455018.137818-4.057586-1.217117-5.551696-5.398178-5.511993-18.461624.175476-36.926315.159119-55.388534.023193-3.598221-.026489-5.398636 1.17746-6.367432 4.691376-2.380691 8.634949-7.063217 16.119782-12.714905 22.952332-5.168853 6.248871-5.30278 6.137726.053345 11.976227.449768.490295.881256.997863 1.342285 1.477172 22.916504 23.82489 60.543289 20.040741 77.185074-8.395507z"/><path d="m119.692047 382.679047c-.041481-12.419953 6.214897-19.195771 17.113449-18.99231 10.596482.197784 17.132401 7.835053 16.539032 19.325928-.417358 8.082397-6.597626 14.024505-15.397796 14.804352-9.16359.812103-15.990899-4.691193-18.254685-15.13797z"/></svg>

<svg version="1.1" id="Layer_1" xmlns="http://www.w3.org/2000/svg" xmlns:xlink="http://www.w3.org/1999/xlink" x="0px" y="0px"
	 width="100%" viewBox="0 0 336 592" enable-background="new 0 0 336 592" xml:space="preserve">
<path fill="#000000" opacity="1.000000" stroke="none" 
	d="
M242.281342,269.000061 
	C242.285950,307.824341 242.293060,346.148651 242.291992,384.472931 
	C242.291763,392.563599 240.793640,393.491302 233.545761,389.840179 
	C228.935242,387.517609 224.423721,384.990662 219.757111,382.790131 
	C216.774139,381.383545 215.744858,379.308136 215.777634,376.076294 
	C215.905945,363.422638 215.830093,350.766907 215.830093,338.162354 
	C215.319229,338.050720 214.901123,337.841095 214.785248,337.950806 
	C196.282257,355.463837 166.566086,355.487335 143.653503,341.581909 
	C126.354683,331.083374 113.657814,316.459839 104.579529,298.482300 
	C102.961700,295.278534 103.346344,293.174957 105.830727,290.592804 
	C115.811684,280.219055 123.507507,268.423492 126.147087,254.005676 
	C128.310745,242.187500 126.413475,230.840759 121.144791,220.015961 
	C119.862999,217.382446 117.815132,217.137924 115.376167,217.146317 
	C105.878548,217.178986 96.376671,216.998810 86.884949,217.238037 
	C82.905434,217.338348 80.678932,216.012756 79.591911,212.148560 
	C78.693794,208.955887 77.278549,205.909271 76.103485,202.793777 
	C73.900200,196.952103 74.961372,195.296219 81.397285,195.155426 
	C88.225792,195.006073 95.059868,195.109375 101.891518,195.106689 
	C108.889839,195.103943 115.889473,195.186661 122.885933,195.072678 
	C126.358162,195.016098 128.754715,196.202545 130.741562,199.217285 
	C140.912094,214.649490 149.441528,230.717911 151.358841,249.505173 
	C151.618835,252.052689 153.014893,252.959091 155.329025,252.960419 
	C174.157639,252.971130 192.986374,252.942734 211.814743,253.013168 
	C215.802429,253.028091 215.819992,250.497223 215.815475,247.648926 
	C215.792007,232.819138 215.808746,217.989288 215.824203,203.159454 
	C215.832184,195.507278 215.846375,195.269272 223.355011,195.338837 
	C238.337082,195.477631 253.315582,194.675049 268.302887,195.329849 
	C271.506989,195.469833 273.101013,196.645767 274.059143,199.552292 
	C275.308838,203.343430 276.956207,207.002319 278.244507,210.782181 
	C279.737640,215.163116 278.397156,217.068832 273.688232,217.124115 
	C265.024811,217.225784 256.355988,217.300613 247.696274,217.095734 
	C243.655731,217.000122 242.154617,218.300323 242.210983,222.513580 
	C242.416016,237.839966 242.285156,253.170853 242.281342,269.000061 
M214.605255,303.818665 
	C215.814804,302.067810 215.804764,300.067963 215.804672,298.060883 
	C215.804337,290.908478 215.650909,283.750336 215.893600,276.605865 
	C216.031418,272.548279 214.676483,271.054169 210.495422,271.093872 
	C192.033798,271.269348 173.569107,271.252991 155.106888,271.117065 
	C151.508667,271.090576 149.708252,272.294525 148.739456,275.808441 
	C146.358765,284.443390 141.676239,291.928223 136.024551,298.760773 
	C130.855698,305.009644 130.721771,304.898499 136.077896,310.737000 
	C136.527664,311.227295 136.959152,311.734863 137.420181,312.214172 
	C160.336685,336.039062 197.963470,332.254913 214.605255,303.818665 
z"/>
<path fill="#000000" opacity="1.000000" stroke="none" 
	d="
M119.692047,382.679047 
	C119.650566,370.259094 125.906944,363.483276 136.805496,363.686737 
	C147.401978,363.884521 153.937897,371.521790 153.344528,383.012665 
	C152.927170,391.095062 146.746902,397.037170 137.946732,397.817017 
	C128.783142,398.629120 121.955833,393.125824 119.692047,382.679047 
z"/>
</svg>
